X:1
T:La Cinquantaine (for violin)
T:La Cinquantaine (for violin)
T:air dans le style ancien
T:Jean Gabriel-Marie
C:Jean Gabriel-Marie
L:1/8
M:4/4
K:C
V:1 treble nm="Violin" snm="Vln."
V:1
!pp!"_dolce""^Andantino" E2 ||S (A2 e2) (.e2 .e2) |{e-f} e2 de f4 | (!open!A2 e2) (.e2 .e2) | %4
{e-f} e2 de!<(! (f4 | !open!a)!<)! z gf e2 d2 | c2 BA (.B2 .c2) | (!trill(!TB7 .!open!A) | %8
!>(! B6!p! E2!>)! |: (!open!A2 e2) (.e2 .e2) |{e-f} e2 de f4 | (A2 e2) (.e2 .e2) | %12
{e-f} e2 de!<(! (f4 | !open!a)!<)! z gf e2 d2 | c2 BA (.B2 .c2) |!>(! (!trill(!TB7 !open!A) | %16
 A6!>)! z2 || (A2 g2) (.g2 .g2) | g2 fg (.a2 .e2) | (f3 g) (.!open!a.g.f.e) | d6 z2 | %21
 (uG2 f2) f2 f2 | f2 ef (.g2 .d2) | (e3 f) (.g.f.e.d) |!>(! c8!>)! |!p! (uB2 e2) e2 B2 | %26
 (cd)cB (.A2 .c2) |"_cresc." (B2 e2) (.e2 .B2) | (cd)cB (.A2 .c2) |!f! ((B2 e4) c2) | %30
 ((B2 e4)"^Sul A" c2) | B2 z2!>(! !>!E4- | E6!>)!!pp!"^dolcissimo" E2 :|!p! (A2 e2) (.e2 .e2) | %34
{e-f} e2 de f4 | (A2 e2) e2 e2 |{e-f} e2 de!<(! (f4 | %37
 !open!a)!<)! !fermata!z!mf!"_rall.\n" gf e2 d2 | c2 BA (.B2 .c2) |!>(! (!trill(!TB7 A) | %40
 A4!>)! z4!fine! |:[K:A] !>!c4 !>!e4 | !>!!open!A4 !>!c4 | F2 Bc (dc)BA |!>(! G6!pp! ((vE2!>)! | %45
"^sotto voce\n" A2) .A2) .G2 .G2 | .F.G.F.G .E2 ((vE2 | A2) .A2) .G2 .G2 | %48
 .F.G(.uF.uG) .E2"_cresc." ((uE2 | c2) !tenuto!c2) B2 B2 | (AB)c^d (eB)GE |!f! c4 ^D4 |1 %52
 E3!<(! E FG!open!AB!<)! :|2 E6 (uF2 |: B2) B2 c2 c2 | (d3 e) .f.e.d.c |!>(! (Bc)Bc (dc)BA | %57
 (GA)BA (GE)FG!>)! |!pp! A2 .A2 (.G2 .G2) | .F.G.F.G .E2 ((vE2 | A2) .A2) (.G2 .G2) | %61
 (FG)(.F.G) E2"_cresc." ((E2 | c2) .c2) B2 B2 | (AB)cd (ec)AE |!f! F2"^rit.\n" d!trill)!c B7/2 A/ | %65
 A4 z2"_a tempo\n" uF2!D.C.! :| %66

